assets/dude/Did–Kitty.svg

<svg width="235" height="101" viewBox="0 0 235 101" fill="none" xmlns="http://www.w3.org/2000/svg">
<path d="M53.8195 0.73999H52.2795C39.5395 0.73999 35.4795 7.59999 30.5795 7.59999C25.6795 7.59999 27.2195 3.54 24.4195 3.54C21.6195 3.54 23.1595 7.59999 18.2595 7.59999C13.3595 7.59999 10.1395 0.73999 1.73949 0.73999C1.45949 0.73999 0.479492 0.73999 0.479492 1.99999C0.479492 3.25999 2.99949 23.28 2.99949 35.74C2.99949 36.44 3.55949 37 4.25949 37H18.1195C18.8195 37 19.3795 37.56 19.3795 38.26V63.46C19.3795 64.16 18.8195 64.72 18.1195 64.72H4.25949C3.55949 64.72 2.99949 65.28 2.99949 65.98C2.99949 78.44 0.479492 98.46 0.479492 99.72C0.479492 100.98 1.45949 100.98 1.73949 100.98C10.1395 100.98 13.3595 94.12 18.2595 94.12C23.1595 94.12 21.6195 98.18 24.4195 98.18C27.2195 98.18 25.6795 94.12 30.5795 94.12C35.4795 94.12 39.5395 100.98 52.2795 100.98H53.8195C72.2995 100.98 86.8595 86.42 86.8595 69.76V31.96C86.8595 15.3 72.2995 0.73999 53.8195 0.73999ZM76.7795 55.9C76.7795 60.8 72.7195 64.72 67.9595 64.72H30.7195C30.0195 64.72 29.4595 64.16 29.4595 63.46V38.26C29.4595 37.56 30.0195 37 30.7195 37H67.9595C72.8595 37 76.7795 40.92 76.7795 45.82V55.9Z" fill="#FF1C31"/>
<path d="M137.685 64.72H123.825C123.125 64.72 122.565 64.16 122.565 63.46V38.26C122.565 37.56 123.125 37 123.825 37H137.685C138.385 37 138.945 36.44 138.945 35.74C138.945 23.28 141.465 3.25999 141.465 1.99999C141.465 0.73999 140.345 0.73999 140.205 0.73999C132.085 0.73999 128.585 7.59999 123.685 7.59999C118.785 7.59999 120.325 3.54 117.525 3.54C114.725 3.54 116.265 7.59999 111.365 7.59999C106.465 7.59999 103.245 0.73999 94.845 0.73999C94.565 0.73999 93.585 0.73999 93.585 1.99999C93.585 3.25999 96.105 23.28 96.105 35.74C96.105 36.44 96.665 37 97.365 37H111.225C111.925 37 112.485 37.56 112.485 38.26V63.46C112.485 64.16 111.925 64.72 111.225 64.72H97.365C96.665 64.72 96.105 65.28 96.105 65.98C96.105 78.44 93.585 98.46 93.585 99.72C93.585 100.98 94.565 100.98 94.845 100.98C102.965 100.98 106.465 94.12 111.365 94.12C116.265 94.12 114.725 98.18 117.525 98.18C120.325 98.18 118.785 94.12 123.685 94.12C128.585 94.12 131.805 100.98 140.205 100.98C140.345 100.98 141.465 100.98 141.465 99.72C141.465 98.46 138.945 78.44 138.945 65.98C138.945 65.28 138.385 64.72 137.685 64.72Z" fill="#FF1C31"/>
<path d="M201.476 0.73999H199.936C187.196 0.73999 183.136 7.59999 178.236 7.59999C173.336 7.59999 174.876 3.54 172.076 3.54C169.276 3.54 170.816 7.59999 165.916 7.59999C161.016 7.59999 157.796 0.73999 149.396 0.73999C149.116 0.73999 148.136 0.73999 148.136 1.99999C148.136 3.25999 150.656 23.28 150.656 35.74C150.656 36.44 151.216 37 151.916 37H165.776C166.476 37 167.036 37.56 167.036 38.26V63.46C167.036 64.16 166.476 64.72 165.776 64.72H151.916C151.216 64.72 150.656 65.28 150.656 65.98C150.656 78.44 148.136 98.46 148.136 99.72C148.136 100.98 149.116 100.98 149.396 100.98C157.796 100.98 161.016 94.12 165.916 94.12C170.816 94.12 169.276 98.18 172.076 98.18C174.876 98.18 173.336 94.12 178.236 94.12C183.136 94.12 187.196 100.98 199.936 100.98H201.476C219.956 100.98 234.516 86.42 234.516 69.76V31.96C234.516 15.3 219.956 0.73999 201.476 0.73999ZM224.436 55.9C224.436 60.8 220.376 64.72 215.616 64.72H178.376C177.676 64.72 177.116 64.16 177.116 63.46V38.26C177.116 37.56 177.676 37 178.376 37H215.616C220.516 37 224.436 40.92 224.436 45.82V55.9Z" fill="#FF1C31"/>
</svg>

<svg xmlns="http://www.w3.org/2000/svg" fill="none" viewBox="0 0 235 101"><path fill="#FF1C31" d="M53.82.74h-1.54c-12.74 0-16.8 6.86-21.7 6.86-4.9 0-3.36-4.06-6.16-4.06-2.8 0-1.26 4.06-6.16 4.06S10.14.74 1.74.74C1.46.74.48.74.48 2S3 23.28 3 35.74c0 .7.56 1.26 1.26 1.26h13.86c.7 0 1.26.56 1.26 1.26v25.2c0 .7-.56 1.26-1.26 1.26H4.26c-.7 0-1.26.56-1.26 1.26C3 78.44.48 98.46.48 99.72c0 1.26.98 1.26 1.26 1.26 8.4 0 11.62-6.86 16.52-6.86s3.36 4.06 6.16 4.06c2.8 0 1.26-4.06 6.16-4.06s8.96 6.86 21.7 6.86h1.54c18.48 0 33.04-14.56 33.04-31.22v-37.8C86.86 15.3 72.3.74 53.82.74zM76.78 55.9c0 4.9-4.06 8.82-8.82 8.82H30.72c-.7 0-1.26-.56-1.26-1.26v-25.2c0-.7.56-1.26 1.26-1.26h37.24c4.9 0 8.82 3.92 8.82 8.82V55.9zM137.685 64.72h-13.86c-.7 0-1.26-.56-1.26-1.26v-25.2c0-.7.56-1.26 1.26-1.26h13.86c.7 0 1.26-.56 1.26-1.26 0-12.46 2.52-32.48 2.52-33.74 0-1.26-1.12-1.26-1.26-1.26-8.12 0-11.62 6.86-16.52 6.86s-3.36-4.06-6.16-4.06c-2.8 0-1.26 4.06-6.16 4.06S103.245.74 94.845.74c-.28 0-1.26 0-1.26 1.26s2.52 21.28 2.52 33.74c0 .7.56 1.26 1.26 1.26h13.86c.7 0 1.26.56 1.26 1.26v25.2c0 .7-.56 1.26-1.26 1.26h-13.86c-.7 0-1.26.56-1.26 1.26 0 12.46-2.52 32.48-2.52 33.74 0 1.26.98 1.26 1.26 1.26 8.12 0 11.62-6.86 16.52-6.86s3.36 4.06 6.16 4.06c2.8 0 1.26-4.06 6.16-4.06s8.12 6.86 16.52 6.86c.14 0 1.26 0 1.26-1.26s-2.52-21.28-2.52-33.74c0-.7-.56-1.26-1.26-1.26zM201.476.74h-1.54c-12.74 0-16.8 6.86-21.7 6.86-4.9 0-3.36-4.06-6.16-4.06-2.8 0-1.26 4.06-6.16 4.06s-8.12-6.86-16.52-6.86c-.28 0-1.26 0-1.26 1.26s2.52 21.28 2.52 33.74c0 .7.56 1.26 1.26 1.26h13.86c.7 0 1.26.56 1.26 1.26v25.2c0 .7-.56 1.26-1.26 1.26h-13.86c-.7 0-1.26.56-1.26 1.26 0 12.46-2.52 32.48-2.52 33.74 0 1.26.98 1.26 1.26 1.26 8.4 0 11.62-6.86 16.52-6.86s3.36 4.06 6.16 4.06c2.8 0 1.26-4.06 6.16-4.06s8.96 6.86 21.7 6.86h1.54c18.48 0 33.04-14.56 33.04-31.22v-37.8c0-16.66-14.56-31.22-33.04-31.22zm22.96 55.16c0 4.9-4.06 8.82-8.82 8.82h-37.24c-.7 0-1.26-.56-1.26-1.26v-25.2c0-.7.56-1.26 1.26-1.26h37.24c4.9 0 8.82 3.92 8.82 8.82V55.9z"/></svg>
